actions/22x22-light/object-group.svg

<svg viewBox="0 0 22 22" xmlns="http://www.w3.org/2000/svg"><path d="m4.30664 3c-.69079 0-1.30664.52486-1.30664 1.22266v13.55273c0 .69779.61585 1.22461 1.30664 1.22461h13.38672c.69079 0 1.30664-.52682 1.30664-1.22461v-13.55273c0-.6978-.61585-1.22266-1.30664-1.22266zm0 .94141h13.38672c.23615 0 .36523.14477.36523.28125v13.55273c0 .13658-.12908.2832-.36523.2832h-13.38672c-.23616 0-.36523-.14662-.36523-.2832v-13.55273c0-.13648.12907-.28125.36523-.28125zm3.19336 1.05859a2.5 2.5 0 0 0 -2.5 2.5 2.5 2.5 0 0 0 2.5 2.5 2.5 2.5 0 0 0 2.5-2.5 2.5 2.5 0 0 0 -2.5-2.5zm5 0c-.277 0-.5.223-.5.5v4c0 .277.223.5.5.5h4c .277 0 .5-.223.5-.5v-4c0-.277-.223-.5-.5-.5zm-6 7c-.277 0-.5.223-.5.5v4c0 .277.223.5.5.5h2c .277 0 .5-.223.5-.5v-4c0-.277-.223-.5-.5-.5zm8 0-2.5 5h5z" fill="#4d4d4d"/></svg>

<svg xmlns="http://www.w3.org/2000/svg" viewBox="0 0 22 22">
  <defs id="defs3051">
    <style type="text/css" id="current-color-scheme">
      .ColorScheme-Text {
        color:#4d4d4d
      }
      </style>
  </defs>
 <path 
     style="fill:currentColor;fill-opacity:1;stroke:none"      
	 class="ColorScheme-Text"
        d="M 4.30664,3 C 3.61585,3 3,3.52486 3,4.22266 L 3,17.77539 C 3,18.47318 3.61585,19 4.30664,19 l 13.38672,0 C 18.38415,19 19,18.47318 19,17.77539 L 19,4.22266 C 19,3.52486 18.38415,3 17.69336,3 L 4.30664,3 Z m 0,0.94141 13.38672,0 c 0.23615,0 0.36523,0.14477 0.36523,0.28125 l 0,13.55273 c 0,0.13658 -0.12908,0.2832 -0.36523,0.2832 l -13.38672,0 c -0.23616,0 -0.36523,-0.14662 -0.36523,-0.2832 l 0,-13.55273 c 0,-0.13648 0.12907,-0.28125 0.36523,-0.28125 z M 7.5,5 A 2.5,2.5 0 0 0 5,7.5 2.5,2.5 0 0 0 7.5,10 2.5,2.5 0 0 0 10,7.5 2.5,2.5 0 0 0 7.5,5 Z m 5,0 C 12.223,5 12,5.223 12,5.5 l 0,4 c 0,0.277 0.223,0.5 0.5,0.5 l 4,0 C 16.777,10 17,9.777 17,9.5 l 0,-4 C 17,5.223 16.777,5 16.5,5 l -4,0 z m -6,7 C 6.223,12 6,12.223 6,12.5 l 0,4 C 6,16.777 6.223,17 6.5,17 l 2,0 C 8.777,17 9,16.777 9,16.5 l 0,-4 C 9,12.223 8.777,12 8.5,12 l -2,0 z m 8,0 -2.5,5 5,0 -2.5,-5 z"
     />
</svg>
